dist/svg/close-s.svg

<!-- Generated by Trend Micro Style Portal -->
<svg version="1.1" xmlns="http://www.w3.org/2000/svg" width="16" height="16" viewBox="0 0 16 16">
  <title>close-s</title>
  <path fill="rgb(34,34,34)" d="M9 8l4-4-1-1-4 4-4-4-1 1 4 4-4 4 1 1 4-4 4 4 1-1-4-4z"></path>
</svg>

<svg width="16" height="16" viewBox="0 0 16 16" fill="rgb(34, 34, 34)" xmlns="http://www.w3.org/2000/svg"><title>close-s</title><path d="M9 8L13 4L12 3L8 7L4 3L3 4L7 8L3 12L4 13L8 9L12 13L13 12L9 8Z" fill="rgb(34, 34, 34)" fill-opacity="1.00"/></svg>
